actions/22/format-line-spacing-normal.svg

<svg xmlns="http://www.w3.org/2000/svg" version="1.1" viewBox="0 0 22 22">
 <defs>
  <style id="current-color-scheme" type="text/css">
   .ColorScheme-Text { color:#808080; }
  </style>
 </defs>
 <path class="ColorScheme-Text" d="M 7,7 V 8 H 4 3 V 10 12 13.9 H 4 7 V 14.9 H 19 V 11.9 H 7 V 12.9 H 4 V 12 H 5 V 10 H 4 V 9 H 7 V 10 H 19 V 7 Z" style="color:#808080;fill:currentColor"/>
</svg>

<svg xmlns="http://www.w3.org/2000/svg" viewBox="0 0 22 22">
  <defs id="defs3051">
    <style type="text/css" id="current-color-scheme">
      .ColorScheme-Text {
        color:#808080;
      }
      </style>
  </defs>
 <path 
    style="fill:currentColor;fill-opacity:1;stroke:none" 
    d="m7 7v1h-3-1v2 2 1.9h1 3v1h12v-3h-12v1h-3v-.9h1v-2h-1v-1h3v1h12v-3z"
    class="ColorScheme-Text"
    />  
</svg>
